frontend/assets/icons/dollar.svg

<svg width="24" height="24" viewBox="0 0 24 24" fill="none" xmlns="http://www.w3.org/2000/svg">
<g id="fi-rr-dollar">
<g id="Vector">
<mask id="path-1-inside-1_1293_79097" fill="currentColor">
<path d="M13.932 4.66667C14.7454 4.66739 15.5253 4.96393 16.1005 5.49118C16.6757 6.01844 16.9992 6.73335 17 7.479C17 7.72212 17.1054 7.95527 17.2929 8.12718C17.4804 8.29909 17.7348 8.39567 18 8.39567C18.2652 8.39567 18.5196 8.29909 18.7071 8.12718C18.8946 7.95527 19 7.72212 19 7.479V7.41667C19 7.39925 19 7.38367 19 7.36625C18.9666 6.15417 18.4181 5.00197 17.4714 4.15522C16.5247 3.30847 15.2547 2.83414 13.932 2.83333H13V1.91667C13 1.67355 12.8946 1.44039 12.7071 1.26849C12.5196 1.09658 12.2652 1 12 1C11.7348 1 11.4804 1.09658 11.2929 1.26849C11.1054 1.44039 11 1.67355 11 1.91667V2.83333H10.068C8.86532 2.83451 7.70229 3.22771 6.78679 3.94266C5.8713 4.65761 5.26301 5.64771 5.07065 6.73597C4.8783 7.82424 5.11441 8.93974 5.73679 9.8831C6.35917 10.8265 7.32726 11.5362 8.468 11.8854L11 12.66V19.3333H10.068C9.25456 19.3326 8.47466 19.0361 7.89947 18.5088C7.32428 17.9816 7.00079 17.2667 7 16.521C7 16.2779 6.89464 16.0447 6.70711 15.8728C6.51957 15.7009 6.26522 15.6043 6 15.6043C5.73478 15.6043 5.48043 15.7009 5.29289 15.8728C5.10536 16.0447 5 16.2779 5 16.521V16.5833C5 16.6007 5 16.6163 5 16.6338C5.03337 17.8458 5.58186 18.998 6.52856 19.8448C7.47527 20.6915 8.74531 21.1659 10.068 21.1667H11V22.0833C11 22.3264 11.1054 22.5596 11.2929 22.7315C11.4804 22.9034 11.7348 23 12 23C12.2652 23 12.5196 22.9034 12.7071 22.7315C12.8946 22.5596 13 22.3264 13 22.0833V21.1667H13.932C15.1347 21.1655 16.2977 20.7723 17.2132 20.0573C18.1287 19.3424 18.737 18.3523 18.9293 17.264C19.1217 16.1758 18.8856 15.0603 18.2632 14.1169C17.6408 13.1735 16.6727 12.4638 15.532 12.1146L13 11.34V4.66667H13.932ZM14.902 13.8526C15.5934 14.0635 16.1804 14.4932 16.5577 15.0646C16.9351 15.6361 17.0782 16.312 16.9615 16.9714C16.8448 17.6307 16.4759 18.2305 15.9208 18.6633C15.3657 19.0961 14.6607 19.3336 13.932 19.3333H13V13.2714L14.902 13.8526ZM11 10.7286L9.1 10.1474C8.40874 9.93652 7.82191 9.50701 7.44453 8.93575C7.06716 8.3645 6.92387 7.68878 7.0403 7.02954C7.15674 6.37029 7.5253 5.77054 8.08003 5.33762C8.63476 4.90469 9.33946 4.66686 10.068 4.66667H11V10.7286Z"/>
</mask>
<path d="M13.932 4.66667C14.7454 4.66739 15.5253 4.96393 16.1005 5.49118C16.6757 6.01844 16.9992 6.73335 17 7.479C17 7.72212 17.1054 7.95527 17.2929 8.12718C17.4804 8.29909 17.7348 8.39567 18 8.39567C18.2652 8.39567 18.5196 8.29909 18.7071 8.12718C18.8946 7.95527 19 7.72212 19 7.479V7.41667C19 7.39925 19 7.38367 19 7.36625C18.9666 6.15417 18.4181 5.00197 17.4714 4.15522C16.5247 3.30847 15.2547 2.83414 13.932 2.83333H13V1.91667C13 1.67355 12.8946 1.44039 12.7071 1.26849C12.5196 1.09658 12.2652 1 12 1C11.7348 1 11.4804 1.09658 11.2929 1.26849C11.1054 1.44039 11 1.67355 11 1.91667V2.83333H10.068C8.86532 2.83451 7.70229 3.22771 6.78679 3.94266C5.8713 4.65761 5.26301 5.64771 5.07065 6.73597C4.8783 7.82424 5.11441 8.93974 5.73679 9.8831C6.35917 10.8265 7.32726 11.5362 8.468 11.8854L11 12.66V19.3333H10.068C9.25456 19.3326 8.47466 19.0361 7.89947 18.5088C7.32428 17.9816 7.00079 17.2667 7 16.521C7 16.2779 6.89464 16.0447 6.70711 15.8728C6.51957 15.7009 6.26522 15.6043 6 15.6043C5.73478 15.6043 5.48043 15.7009 5.29289 15.8728C5.10536 16.0447 5 16.2779 5 16.521V16.5833C5 16.6007 5 16.6163 5 16.6338C5.03337 17.8458 5.58186 18.998 6.52856 19.8448C7.47527 20.6915 8.74531 21.1659 10.068 21.1667H11V22.0833C11 22.3264 11.1054 22.5596 11.2929 22.7315C11.4804 22.9034 11.7348 23 12 23C12.2652 23 12.5196 22.9034 12.7071 22.7315C12.8946 22.5596 13 22.3264 13 22.0833V21.1667H13.932C15.1347 21.1655 16.2977 20.7723 17.2132 20.0573C18.1287 19.3424 18.737 18.3523 18.9293 17.264C19.1217 16.1758 18.8856 15.0603 18.2632 14.1169C17.6408 13.1735 16.6727 12.4638 15.532 12.1146L13 11.34V4.66667H13.932ZM14.902 13.8526C15.5934 14.0635 16.1804 14.4932 16.5577 15.0646C16.9351 15.6361 17.0782 16.312 16.9615 16.9714C16.8448 17.6307 16.4759 18.2305 15.9208 18.6633C15.3657 19.0961 14.6607 19.3336 13.932 19.3333H13V13.2714L14.902 13.8526ZM11 10.7286L9.1 10.1474C8.40874 9.93652 7.82191 9.50701 7.44453 8.93575C7.06716 8.3645 6.92387 7.68878 7.0403 7.02954C7.15674 6.37029 7.5253 5.77054 8.08003 5.33762C8.63476 4.90469 9.33946 4.66686 10.068 4.66667H11V10.7286Z" fill="currentColor"/>
</g>
</g>
</svg>

<?xml version="1.0" encoding="UTF-8"?>
<svg id="Layer_1" data-name="Layer 1" xmlns="http://www.w3.org/2000/svg" version="1.1" viewBox="0 0 24 24">
  <g id="fi-rr-dollar">
    <g id="Vector">
      <path d="M13.9,4.7c.8,0,1.6.3,2.2.8.6.5.9,1.2.9,2,0,.2.1.5.3.6s.4.3.7.3.5,0,.7-.3.3-.4.3-.6h0c0-1.3-.6-2.5-1.5-3.3-.9-.8-2.2-1.3-3.5-1.3h-.9v-.9c0-.2-.1-.5-.3-.6-.2-.2-.4-.3-.7-.3s-.5,0-.7.3c-.2.2-.3.4-.3.6v.9h-.9c-1.2,0-2.4.4-3.3,1.1-.9.7-1.5,1.7-1.7,2.8-.2,1.1,0,2.2.7,3.1.6.9,1.6,1.7,2.7,2l2.5.8v6.7h-.9c-.8,0-1.6-.3-2.2-.8-.6-.5-.9-1.2-.9-2,0-.2-.1-.5-.3-.6-.2-.2-.4-.3-.7-.3s-.5,0-.7.3c-.2.2-.3.4-.3.6h0c0,1.3.6,2.5,1.5,3.3.9.8,2.2,1.3,3.5,1.3h.9v.9c0,.2.1.5.3.6s.4.3.7.3.5,0,.7-.3.3-.4.3-.6v-.9h.9c1.2,0,2.4-.4,3.3-1.1.9-.7,1.5-1.7,1.7-2.8.2-1.1,0-2.2-.7-3.1-.6-.9-1.6-1.7-2.7-2l-2.5-.8v-6.7h.9ZM14.9,13.9c.7.2,1.3.6,1.7,1.2.4.6.5,1.2.4,1.9-.1.7-.5,1.3-1,1.7s-1.3.7-2,.7h-.9v-6.1l1.9.6ZM11,10.7l-1.9-.6c-.7-.2-1.3-.6-1.7-1.2-.4-.6-.5-1.2-.4-1.9.1-.7.5-1.3,1-1.7.6-.4,1.3-.7,2-.7h.9v6.1Z" fill="currentColor" stroke-width="0"/>
    </g>
  </g>
</svg>
